!!!OTL: "Der Kohlenbauer" BIN JA DAS KOHLENBAUABUA
!!!ARE: Europa, Mitteleuropa, Oesterreich
!!!SCT: Z1299
!!!YEM: Copyright 1995, estate of Helmut Schaffrath.
**kern
*ICvox
*Ivox
*M3/4
*k[b-e-]
*B-:
{8d
8f
8b-
8f
8b-
8dd
=1
4ff
8ff
8gg
4ff}
=2
{8a
8cc
4.ff
8ee-
=3
8ee-
8dd
8cc
8dd
4b-}
=4
{8d
8f
8b-
8f
8b-
8dd
=5
4.ff
8gg
4ff}
=6
{8a
8cc
4.ff
8a
=7
2b-
4r}
=8
{4b-
4a
4g
=9
4.cc
8a
4f}
=10
{4b-
4a
4g
=11
4.cc
8a
4f}
=12
{8d
8f
8b-
8f
8b-
8dd
=13
4.ff
8gg
4ff}
=14
{8a
8cc
4.ff
8a
=15
2b-
4r}
==
!!!AGN: Handwerker -, Bauern - Lied
!!!ONB: ESAC (Essen Associative Code) Database: ZUCCAL
!!!AMT: simple triple
!!!AIN: vox
!!!EED: Helmut Schaffrath
!!!EEV: 1.0
*-
